X: 23687
T: Lion, The
R: reel
M: 4/4
K: Gminor
|:B2dB cdBd|fdcB (3GGG BG|F2DF B,DFB|dFfd c3d|
e2ge fbfd|gfdB cBGA|(3BBB GB FBEB|1 DFEC B,3F:|2 DFEC B,3C||
|:DFB,D EGcB|AcFA Bdgf|bBaB gfdB|cBdB cBGF|
DFB,D EGcB|AcFA Bdgf|bBaB gfdc|1 BGFD B,2 (3B,B,B,:|2 BGFD B,3F||

